images/facebook-icon.svg

<svg height="24" viewBox="0 0 24 24" width="24" xmlns="http://www.w3.org/2000/svg"><path d="m12 0c-6.4 0-12 5.6-12 12s5.6 12 12 12 12-5.6 12-12-5.6-12-12-12zm3.6 8h-1.6c-.8 0-.8 0-.8.8v.8h1.6v1.6h-1.6v7.2h-3.2v-6.4h-1.6v-2.4h1.6v-1.6c0-1.6.8-2.4 3.2-2.4h1.6v2.4z" fill="#dad7c5"/></svg>

<svg xmlns="http://www.w3.org/2000/svg" id="Layer_1" width="24" height="24" viewBox="0 0 24 24"><style>.st0{fill:#dad7c5}</style><path d="M12 0C5.6 0 0 5.6 0 12s5.6 12 12 12 12-5.6 12-12S18.4 0 12 0zm3.6 8H14c-.8 0-.8 0-.8.8v.8h1.6v1.6h-1.6v7.2H10V12H8.4V9.6H10V8c0-1.6.8-2.4 3.2-2.4h1.6V8h.8z" class="st0"/></svg>
